markup/src/img/grid-img-12.svg

<svg width="77" height="77" viewBox="0 0 77 77" fill="none" xmlns="http://www.w3.org/2000/svg">
<path d="M75.7164 19.25H72.8545C72.2552 19.25 71.7355 19.6645 71.6033 20.2484C71.3479 21.3713 70.9052 22.4391 70.2853 23.4221C69.9658 23.929 70.0402 24.5899 70.4637 25.0134L71.5827 26.1325L69.7668 27.9484L68.6478 26.8294C68.2243 26.4059 67.5647 26.3327 67.0564 26.651C66.0734 27.2708 65.0057 27.7136 63.8828 27.969C63.2976 28.1024 62.8831 28.6222 62.8831 29.2215V30.8H61.2263C58.5364 25.2521 54.159 20.6681 48.7665 17.719V16.6833H50.345C50.9443 16.6833 51.464 16.2688 51.5962 15.6849C51.8516 14.562 52.2943 13.4942 52.9142 12.5112C53.2337 12.0043 53.1593 11.3434 52.7358 10.9199L51.6167 9.80082L53.4326 7.9849L54.5517 9.10397C54.9765 9.52747 55.6361 9.60318 56.143 9.28235C57.1261 8.6625 58.1938 8.21975 59.3167 7.96437C59.9019 7.8309 60.3164 7.31115 60.3164 6.71183V5.13333H62.8831V6.71183C62.8831 7.31115 63.2976 7.8309 63.8815 7.96308C65.0044 8.21847 66.0721 8.66122 67.0552 9.28107C67.5634 9.6019 68.2243 9.52618 68.6465 9.10268L69.7656 7.98362L71.5815 9.79953L70.4624 10.9186C70.0389 11.3421 69.9645 12.003 70.284 12.5099C70.9039 13.493 71.3466 14.5607 71.602 15.6836C71.7355 16.2688 72.2552 16.6833 72.8545 16.6833H75.7164C76.4248 16.6833 76.9997 16.1084 76.9997 15.4C76.9997 14.6916 76.4248 14.1167 75.7164 14.1167H73.835C73.6091 13.4006 73.3217 12.7063 72.9726 12.0389L74.3047 10.7069C74.8065 10.2051 74.8065 9.394 74.3047 8.89222L70.6742 5.26167C70.1724 4.75988 69.3613 4.75988 68.8595 5.26167L67.5274 6.59377C66.8601 6.2447 66.1658 5.95723 65.4497 5.73137V3.85C65.4497 3.1416 64.8748 2.56667 64.1664 2.56667H59.0331C58.3247 2.56667 57.7498 3.1416 57.7498 3.85V5.73137C57.0337 5.95723 56.3394 6.2447 55.6721 6.59377L54.34 5.26167C53.8382 4.75988 53.0271 4.75988 52.5253 5.26167L48.8948 8.89222C48.393 9.394 48.393 10.2051 48.8948 10.7069L50.2269 12.0389C49.8778 12.7063 49.5891 13.4006 49.3645 14.1167H47.4831C46.7747 14.1167 46.1998 14.6916 46.1998 15.4V16.4729C42.6501 14.9573 38.7462 14.1167 34.6499 14.1167C29.4922 14.1167 24.6399 15.45 20.4165 17.7857L19.2384 15.7439C18.8829 15.1305 18.0988 14.9175 17.4853 15.2742L16.7295 15.7106C16.3329 15.4372 15.9158 15.1972 15.4795 14.9906V14.1167C15.4795 13.4083 14.9046 12.8333 14.1962 12.8333H9.06286C8.35447 12.8333 7.77953 13.4083 7.77953 14.1167V14.9906C7.3432 15.1972 6.92612 15.4372 6.53086 15.7106L5.77498 15.2742C5.15898 14.9188 4.37615 15.1305 4.02195 15.7439L1.45529 20.1894C1.1011 20.8028 1.31156 21.5882 1.92499 21.9424L2.67702 22.3775C2.65649 22.62 2.64622 22.86 2.64622 23.1C2.64622 23.34 2.65649 23.58 2.67702 23.8225L1.92499 24.2576C1.31028 24.6118 1.1011 25.3972 1.45529 26.0106L4.02195 30.4561C4.37615 31.0695 5.15898 31.28 5.77498 30.9258L6.53086 30.4894C6.9274 30.7628 7.3432 31.0028 7.77953 31.2094V31.4417C6.08554 35.1608 5.13331 39.2867 5.13331 43.6333C5.13331 46.9353 5.67744 50.1745 6.75416 53.2789L4.32097 54.5057C3.85768 54.7393 3.58049 55.2295 3.61899 55.7467C3.65749 56.2639 4.00398 56.7079 4.49678 56.8696L15.4654 60.4873C15.5989 60.531 15.7336 60.5528 15.8671 60.5528C16.4061 60.5528 16.9078 60.2101 17.0862 59.6699L20.7039 48.7012C20.8656 48.2084 20.7155 47.6656 20.3228 47.328C19.9301 46.988 19.3718 46.9212 18.9073 47.1535L16.0634 48.587C15.622 46.9533 15.3999 45.294 15.3999 43.6333C15.3999 41.0833 15.8953 38.5988 16.8732 36.249C17.1453 35.5945 16.836 34.8438 16.1815 34.5704C15.527 34.2984 14.7762 34.6089 14.5029 35.2621C13.3954 37.9263 12.8333 40.7433 12.8333 43.6333C12.8333 46.0627 13.2516 48.4869 14.0755 50.8392C14.1975 51.1883 14.4644 51.4668 14.807 51.6054C15.1497 51.744 15.5347 51.7273 15.8645 51.5618L17.2954 50.8405L15.0496 57.6486L8.24282 55.4028L8.93196 55.055C9.52229 54.7573 9.79051 54.0578 9.54924 53.4419C8.32238 50.3054 7.69997 47.0047 7.69997 43.6333C7.69997 28.7723 19.7889 16.6833 34.6499 16.6833C49.5108 16.6833 61.5997 28.7723 61.5997 43.6333C61.5997 46.2488 61.2212 48.845 60.473 51.35C60.2702 52.0289 60.6565 52.7437 61.3354 52.9465C62.0143 53.1518 62.7291 52.763 62.9318 52.0841C63.7506 49.3403 64.1664 46.4964 64.1664 43.6333C64.1664 40.0246 63.5119 36.566 62.3223 33.3667H64.1664C64.8748 33.3667 65.4497 32.7917 65.4497 32.0833V30.202C66.1658 29.9761 66.8601 29.6886 67.5274 29.3396L68.8595 30.6717C69.3613 31.1734 70.1724 31.1734 70.6742 30.6717L74.3047 27.0411C74.8065 26.5393 74.8065 25.7283 74.3047 25.2265L72.9726 23.8944C73.3217 23.227 73.6104 22.5328 73.835 21.8167H75.7164C76.4248 21.8167 76.9997 21.2417 76.9997 20.5333C76.9997 19.8249 76.4248 19.25 75.7164 19.25ZM10.3462 23.1C10.3462 22.3929 10.9224 21.8167 11.6295 21.8167C12.3366 21.8167 12.9128 22.3929 12.9128 23.1C12.9128 23.8071 12.3366 24.3833 11.6295 24.3833C10.9224 24.3833 10.3462 23.8071 10.3462 23.1ZM15.1304 21.5189C14.526 20.1843 13.1875 19.25 11.6295 19.25C9.5069 19.25 7.77953 20.9774 7.77953 23.1C7.77953 24.8132 8.91143 26.2506 10.4604 26.7485C9.96376 27.4582 9.49791 28.1923 9.06286 28.9456C8.48665 28.6928 7.94252 28.3822 7.46384 27.9741C7.0506 27.6199 6.45899 27.5647 5.98929 27.8381L5.60301 28.0614L4.31968 25.8386L4.70596 25.6153C5.17695 25.3445 5.42463 24.8055 5.32581 24.2717C5.25009 23.8597 5.21288 23.476 5.21288 23.1C5.21288 22.724 5.25009 22.3403 5.32581 21.9283C5.42463 21.3944 5.17566 20.8567 4.70596 20.5847L4.31968 20.3614L5.60301 18.1386L5.98929 18.3619C6.46027 18.634 7.05317 18.5801 7.46384 18.2259C8.06187 17.7151 8.74331 17.3224 9.49021 17.0581C10.0023 16.8758 10.3462 16.392 10.3462 15.8479V15.4H12.9128V15.8479C12.9128 16.392 13.2555 16.8758 13.7688 17.0581C14.517 17.3224 15.1985 17.7151 15.7965 18.2259C16.2097 18.5788 16.7988 18.6327 17.271 18.3619L17.6573 18.1386L18.2258 19.1229C17.1388 19.8519 16.1083 20.6552 15.1304 21.5189Z" fill="#40AC6C"/>
<path d="M61.5997 11.55C58.0616 11.55 55.1831 14.4285 55.1831 17.9667C55.1831 21.5048 58.0616 24.3833 61.5997 24.3833C65.1379 24.3833 68.0164 21.5048 68.0164 17.9667C68.0164 14.4285 65.1379 11.55 61.5997 11.55ZM61.5997 21.8167C59.4771 21.8167 57.7498 20.0893 57.7498 17.9667C57.7498 15.844 59.4771 14.1167 61.5997 14.1167C63.7224 14.1167 65.4497 15.844 65.4497 17.9667C65.4497 20.0893 63.7224 21.8167 61.5997 21.8167Z" fill="#40AC6C"/>
<path d="M41.2218 43.2573C41.7236 43.7591 42.5346 43.7591 43.0364 43.2573L48.9217 37.372C49.4235 36.8702 49.4235 36.0591 48.9217 35.5573L45.2925 31.9281C44.7907 31.4263 43.9797 31.4263 43.4779 31.9281L32.3014 43.1046L27.3067 37.277C27.0859 37.019 26.7702 36.8586 26.4301 36.833C26.0926 36.806 25.7551 36.9164 25.4959 37.1384L21.5984 40.4802C21.0607 40.9409 20.9978 41.752 21.4598 42.2897L29.1598 51.273C29.8553 52.0841 30.8666 52.573 31.9343 52.6128C31.9523 52.6141 32.0665 52.6167 32.0832 52.6167C33.097 52.6167 34.089 52.206 34.8051 51.4886L39.4072 46.8866C39.9089 46.3848 39.9089 45.5737 39.4072 45.0719C38.9054 44.5702 38.0943 44.5702 37.5925 45.0719L32.9905 49.674C32.7518 49.9127 32.4233 50.05 32.0383 50.05H32.0344C31.6777 50.0359 31.3402 49.8729 31.1092 49.6021L24.2446 41.5928L26.194 39.9219L31.2542 45.8266C31.4865 46.0973 31.8214 46.2603 32.1795 46.2732C32.5426 46.2924 32.884 46.1512 33.1368 45.8984L44.3852 34.65L46.1998 36.4646L41.2218 41.4427C40.72 41.9445 40.72 42.7555 41.2218 43.2573Z" fill="#40AC6C"/>
<path d="M1.28333 8.98333H7.69997C8.40837 8.98333 8.9833 8.4084 8.9833 7.7V1.28333C8.9833 0.574933 8.40837 0 7.69997 0H1.28333C0.574931 0 0 0.574933 0 1.28333V7.7C0 8.4084 0.574931 8.98333 1.28333 8.98333ZM2.56666 2.56667H6.41664V6.41667H2.56666V2.56667Z" fill="#40AC6C"/>
<path d="M20.5332 8.98333H26.9499C27.6583 8.98333 28.2332 8.4084 28.2332 7.7V1.28333C28.2332 0.574933 27.6583 0 26.9499 0H20.5332C19.8249 0 19.2499 0.574933 19.2499 1.28333V7.7C19.2499 8.4084 19.8249 8.98333 20.5332 8.98333ZM21.8166 2.56667H25.6666V6.41667H21.8166V2.56667Z" fill="#40AC6C"/>
<path d="M11.8066 7.18667C12.0582 7.5229 12.4444 7.7 12.8346 7.7C13.1015 7.7 13.3723 7.61658 13.6033 7.44333L16.1699 5.51833C16.4933 5.27578 16.6833 4.89592 16.6833 4.49167C16.6833 4.08742 16.4933 3.70755 16.1699 3.465L13.6033 1.54C13.036 1.11393 12.2327 1.23072 11.8066 1.79667C11.3806 2.3639 11.4961 3.16855 12.0633 3.59333L13.2619 4.49167L12.0633 5.39C11.4961 5.81478 11.3818 6.61943 11.8066 7.18667Z" fill="#40AC6C"/>
<path d="M39.7832 8.98333H46.1998C46.9082 8.98333 47.4831 8.4084 47.4831 7.7V1.28333C47.4831 0.574933 46.9082 0 46.1998 0H39.7832C39.0748 0 38.4998 0.574933 38.4998 1.28333V7.7C38.4998 8.4084 39.0748 8.98333 39.7832 8.98333ZM41.0665 2.56667H44.9165V6.41667H41.0665V2.56667Z" fill="#40AC6C"/>
<path d="M31.0565 7.18667C31.3081 7.5229 31.6943 7.7 32.0845 7.7C32.3514 7.7 32.6222 7.61658 32.8532 7.44333L35.4199 5.51833C35.7433 5.27578 35.9332 4.89592 35.9332 4.49167C35.9332 4.08742 35.7433 3.70755 35.4199 3.465L32.8532 1.54C32.286 1.11393 31.4813 1.23072 31.0565 1.79667C30.6305 2.3639 30.746 3.16855 31.3132 3.59333L32.5118 4.49167L31.3132 5.39C30.746 5.81478 30.6318 6.61943 31.0565 7.18667Z" fill="#40AC6C"/>
<path d="M68.9237 59.4093C68.5554 59.041 68.0048 58.9307 67.5249 59.1309C67.0462 59.3298 66.7331 59.7982 66.7331 60.3167V62.8833H57.0093C58.5133 61.1303 59.839 59.1937 60.926 57.075C61.2481 56.4448 61.0004 55.671 60.369 55.3476C59.7389 55.0255 58.9651 55.2732 58.6417 55.9046C54.0012 64.9585 44.8074 70.5833 34.6499 70.5833H2.56666V65.45H34.6499C46.6798 65.45 56.4664 55.6633 56.4664 43.6333C56.4664 31.6034 46.6798 21.8167 34.6499 21.8167C27.752 21.8167 21.4008 24.9955 17.2287 30.5382C16.8026 31.1041 16.9155 31.9088 17.4815 32.3349C18.0487 32.7622 18.8534 32.6467 19.2782 32.0821C22.9626 27.19 28.5643 24.3833 34.6499 24.3833C45.2643 24.3833 53.8998 33.0189 53.8998 43.6333C53.8998 54.2478 45.2643 62.8833 34.6499 62.8833H1.28333C0.574931 62.8833 0 63.4583 0 64.1667V71.8667C0 72.5751 0.574931 73.15 1.28333 73.15H66.7331V75.7167C66.7331 76.2351 67.0462 76.7035 67.5249 76.9025C67.684 76.9679 67.8508 77 68.0164 77C68.3501 77 68.6786 76.8691 68.9237 76.624L76.6237 68.924C77.1254 68.4222 77.1254 67.6111 76.6237 67.1093L68.9237 59.4093ZM69.2997 72.6187V71.8667C69.2997 71.1583 68.7248 70.5833 68.0164 70.5833H46.7106C49.5724 69.3051 52.2096 67.5714 54.5312 65.45H68.0164C68.7248 65.45 69.2997 64.8751 69.2997 64.1667V63.4146L73.9017 68.0167L69.2997 72.6187Z" fill="#40AC6C"/>
</svg>

<svg width="77" height="77" fill="none" xmlns="http://www.w3.org/2000/svg"><path d="M75.716 19.25h-2.861c-.6 0-1.12.415-1.252.998a10.16 10.16 0 0 1-1.318 3.174 1.283 1.283 0 0 0 .179 1.591l1.119 1.12-1.816 1.815-1.12-1.119a1.285 1.285 0 0 0-1.59-.178 10.158 10.158 0 0 1-3.174 1.318c-.585.133-1 .653-1 1.252V30.8h-1.657a29.718 29.718 0 0 0-12.46-13.081v-1.036h1.579c.6 0 1.119-.414 1.251-.998a10.16 10.16 0 0 1 1.318-3.174 1.283 1.283 0 0 0-.178-1.591l-1.12-1.12 1.817-1.815 1.119 1.119a1.28 1.28 0 0 0 1.591.178c.983-.62 2.05-1.062 3.174-1.318.585-.133 1-.653 1-1.252V5.133h2.566v1.579c0 .6.415 1.119.998 1.251 1.123.255 2.191.698 3.174 1.318.508.32 1.17.245 1.591-.178l1.12-1.12L71.582 9.8l-1.12 1.119a1.283 1.283 0 0 0-.178 1.59 10.16 10.16 0 0 1 1.318 3.175c.133.585.653 1 1.252 1h2.862a1.284 1.284 0 0 0 0-2.567h-1.881a12.761 12.761 0 0 0-.862-2.078l1.332-1.332a1.282 1.282 0 0 0 0-1.815l-3.63-3.63a1.282 1.282 0 0 0-1.816 0l-1.332 1.332a12.755 12.755 0 0 0-2.077-.863V3.85c0-.708-.575-1.283-1.284-1.283h-5.133c-.708 0-1.283.575-1.283 1.283v1.881a12.81 12.81 0 0 0-2.078.863L54.34 5.262a1.282 1.282 0 0 0-1.815 0l-3.63 3.63a1.282 1.282 0 0 0 0 1.815l1.332 1.332c-.35.667-.638 1.362-.862 2.078h-1.882c-.708 0-1.283.575-1.283 1.283v1.073a29.345 29.345 0 0 0-11.55-2.356 29.325 29.325 0 0 0-14.233 3.669l-1.179-2.042a1.282 1.282 0 0 0-1.753-.47l-.755.437a8.942 8.942 0 0 0-1.25-.72v-.874c0-.709-.575-1.284-1.284-1.284H9.063c-.709 0-1.283.575-1.283 1.284v.874a8.85 8.85 0 0 0-1.25.72l-.755-.437a1.282 1.282 0 0 0-1.753.47l-2.567 4.445a1.284 1.284 0 0 0 .47 1.753l.752.436a8.547 8.547 0 0 0 0 1.445l-.752.435a1.283 1.283 0 0 0-.47 1.753l2.567 4.445a1.283 1.283 0 0 0 1.753.47l.756-.437c.396.274.812.514 1.249.72v.233a29.335 29.335 0 0 0-2.647 12.191c0 3.302.544 6.541 1.621 9.646l-2.433 1.227a1.284 1.284 0 0 0 .176 2.364l10.968 3.617a1.285 1.285 0 0 0 1.62-.817l3.62-10.97a1.284 1.284 0 0 0-1.797-1.547l-2.844 1.433a18.96 18.96 0 0 1-.663-4.954c0-2.55.495-5.034 1.473-7.384a1.284 1.284 0 0 0-2.37-.987 21.7 21.7 0 0 0-1.67 8.371c0 2.43.419 4.854 1.242 7.206a1.284 1.284 0 0 0 1.79.723l1.43-.721-2.245 6.808-6.807-2.246.689-.348c.59-.298.859-.997.617-1.613a26.82 26.82 0 0 1-1.85-9.808c0-14.86 12.089-26.95 26.95-26.95 14.86 0 26.95 12.09 26.95 26.95 0 2.616-.379 5.212-1.127 7.717a1.283 1.283 0 0 0 2.459.734 29.539 29.539 0 0 0-.61-18.717h1.844c.709 0 1.284-.575 1.284-1.284v-1.881c.716-.226 1.41-.513 2.077-.862l1.332 1.332a1.282 1.282 0 0 0 1.815 0l3.63-3.63a1.282 1.282 0 0 0 0-1.816l-1.331-1.332a12.67 12.67 0 0 0 .862-2.077h1.881a1.284 1.284 0 0 0 0-2.567zm-65.37 3.85c0-.707.576-1.283 1.284-1.283.707 0 1.283.576 1.283 1.283s-.576 1.283-1.284 1.283a1.285 1.285 0 0 1-1.283-1.283zm4.784-1.581a3.847 3.847 0 0 0-3.5-2.269 3.855 3.855 0 0 0-3.85 3.85c0 1.713 1.131 3.15 2.68 3.648-.496.71-.962 1.444-1.397 2.198a6.398 6.398 0 0 1-1.6-.972 1.278 1.278 0 0 0-1.474-.136l-.386.223L4.32 25.84l.386-.224c.47-.27.719-.81.62-1.343a6.431 6.431 0 0 1-.113-1.172c0-.376.037-.76.113-1.172a1.283 1.283 0 0 0-.62-1.343l-.386-.224 1.283-2.222.386.223a1.28 1.28 0 0 0 1.475-.136 6.387 6.387 0 0 1 2.026-1.168c.512-.182.856-.666.856-1.21V15.4h2.567v.448c0 .544.342 1.028.856 1.21.748.264 1.43.657 2.027 1.168a1.284 1.284 0 0 0 1.475.136l.386-.223.569.984a29.504 29.504 0 0 0-3.096 2.396z" fill="#40AC6C"/><path d="M61.6 11.55a6.424 6.424 0 0 0-6.417 6.417 6.424 6.424 0 0 0 6.417 6.416 6.424 6.424 0 0 0 6.416-6.416A6.424 6.424 0 0 0 61.6 11.55zm0 10.267a3.855 3.855 0 0 1-3.85-3.85 3.855 3.855 0 0 1 3.85-3.85 3.855 3.855 0 0 1 3.85 3.85 3.855 3.855 0 0 1-3.85 3.85zm-20.378 21.44a1.282 1.282 0 0 0 1.814 0l5.886-5.885a1.282 1.282 0 0 0 0-1.815l-3.63-3.629a1.282 1.282 0 0 0-1.814 0L32.3 43.105l-4.994-5.828a1.281 1.281 0 0 0-1.811-.139l-3.898 3.342c-.537.46-.6 1.272-.138 1.81l7.7 8.983a3.855 3.855 0 0 0 5.645.216l4.602-4.602a1.282 1.282 0 1 0-1.814-1.815l-4.603 4.602a1.317 1.317 0 0 1-.952.376h-.004a1.286 1.286 0 0 1-.925-.448l-6.864-8.01 1.949-1.67 5.06 5.905c.232.27.567.433.925.446.364.02.705-.122.958-.375L44.385 34.65l1.815 1.815-4.978 4.978a1.282 1.282 0 0 0 0 1.814zM1.283 8.983H7.7c.708 0 1.283-.575 1.283-1.283V1.283C8.983.575 8.408 0 7.7 0H1.283C.575 0 0 .575 0 1.283V7.7c0 .708.575 1.283 1.283 1.283zm1.284-6.416h3.85v3.85h-3.85v-3.85zm17.966 6.416h6.417c.708 0 1.283-.575 1.283-1.283V1.283C28.233.575 27.658 0 26.95 0h-6.417c-.708 0-1.283.575-1.283 1.283V7.7c0 .708.575 1.283 1.283 1.283zm1.284-6.416h3.85v3.85h-3.85v-3.85zm-10.01 4.62a1.281 1.281 0 0 0 1.796.256l2.567-1.925a1.282 1.282 0 0 0 0-2.053L13.603 1.54a1.284 1.284 0 0 0-1.54 2.053l1.199.899-1.199.898a1.283 1.283 0 0 0-.256 1.797zm27.976 1.796H46.2c.708 0 1.283-.575 1.283-1.283V1.283C47.483.575 46.908 0 46.2 0h-6.417C39.075 0 38.5.575 38.5 1.283V7.7c0 .708.575 1.283 1.283 1.283zm1.283-6.416h3.85v3.85h-3.85v-3.85zm-10.01 4.62a1.281 1.281 0 0 0 1.797.256l2.567-1.925a1.282 1.282 0 0 0 0-2.053L32.853 1.54a1.284 1.284 0 0 0-1.54 2.053l1.199.899-1.199.898a1.284 1.284 0 0 0-.256 1.797z" fill="#40AC6C"/><path d="M68.924 59.41a1.279 1.279 0 0 0-1.4-.28 1.285 1.285 0 0 0-.79 1.187v2.566h-9.725a29.834 29.834 0 0 0 3.917-5.808 1.284 1.284 0 0 0-2.284-1.17c-4.64 9.053-13.835 14.678-23.992 14.678H2.567V65.45H34.65c12.03 0 21.816-9.787 21.816-21.817S46.68 21.817 34.65 21.817c-6.898 0-13.25 3.178-17.421 8.721a1.283 1.283 0 0 0 2.05 1.544c3.684-4.892 9.285-7.699 15.37-7.699 10.615 0 19.25 8.636 19.25 19.25 0 10.615-8.635 19.25-19.25 19.25H1.284c-.708 0-1.283.575-1.283 1.284v7.7c0 .708.575 1.283 1.283 1.283h65.45v2.567A1.286 1.286 0 0 0 68.016 77c.334 0 .663-.13.908-.376l7.7-7.7a1.282 1.282 0 0 0 0-1.815l-7.7-7.7zm.376 13.209v-.752c0-.709-.575-1.284-1.284-1.284H46.711a29.32 29.32 0 0 0 7.82-5.133h13.485c.709 0 1.284-.575 1.284-1.283v-.752l4.602 4.602-4.602 4.602z" fill="#40AC6C"/></svg>
